svgs/solid_explorer.svg

<svg width="192" height="192" viewBox="0 0 192 192" fill="none" xmlns="http://www.w3.org/2000/svg"><path d="m80 38 4.243-4.243A6 6 0 0 0 80 32v6Zm16 16-4.243 4.243A6 6 0 0 0 96 60v-6Zm58 94H38v12h116v-12ZM28 138V54H16v84h12Zm10-94h42V32H38v12Zm37.757-1.757 16 16 8.486-8.486-16-16-8.486 8.486ZM164 70v68h12V70h-12ZM96 60h58V48H96v12Zm-58 88c-5.523 0-10-4.477-10-10H16c0 12.15 9.85 22 22 22v-12Zm116 12c12.15 0 22-9.85 22-22h-12c0 5.523-4.477 10-10 10v12Zm22-90c0-12.15-9.85-22-22-22v12c5.523 0 10 4.477 10 10h12ZM28 54c0-5.523 4.477-10 10-10V32c-12.15 0-22 9.85-22 22h12Zm56.265 25.274 4.243 4.242a6 6 0 0 0 1.253-6.651l-5.496 2.409Zm-28.991 28.991-2.409 5.496a6.001 6.001 0 0 0 6.651-1.253l-4.242-4.243Zm20.152-31.466a15.945 15.945 0 0 1 3.344 4.883l10.99-4.817a27.945 27.945 0 0 0-5.848-8.551l-8.486 8.485Zm-22.627 0c6.248-6.249 16.379-6.249 22.627 0l8.486-8.485c-10.935-10.935-28.664-10.935-39.598 0l8.485 8.485Zm0 22.627c-6.248-6.248-6.248-16.379 0-22.627l-8.485-8.485c-10.935 10.934-10.935 28.663 0 39.598l8.485-8.486Zm4.883 3.344a15.943 15.943 0 0 1-4.883-3.344l-8.485 8.486a27.956 27.956 0 0 0 8.551 5.849l4.817-10.991Zm1.834 9.738 28.992-28.992-8.485-8.485-28.992 28.992 8.485 8.485Z" fill="#000"/><path d="m42.546 120.993-4.243-4.242a6 6 0 0 0-1.252 6.651l5.495-2.409Zm28.992-28.991 2.408-5.496a6 6 0 0 0-6.651 1.253l4.243 4.243Zm-20.153 31.466a15.941 15.941 0 0 1-3.344-4.883l-10.99 4.817a27.94 27.94 0 0 0 5.849 8.551l8.485-8.485Zm22.627 0c-6.248 6.249-16.379 6.249-22.627 0l-8.485 8.485c10.934 10.935 28.663 10.935 39.598 0l-8.486-8.485Zm0-22.627c6.249 6.248 6.249 16.379 0 22.627l8.486 8.485c10.934-10.934 10.934-28.663 0-39.597l-8.486 8.485Zm-4.883-3.344a15.941 15.941 0 0 1 4.883 3.344l8.486-8.485a27.947 27.947 0 0 0-8.552-5.85L69.13 97.497Zm-1.834-9.738-28.992 28.992 8.486 8.485L75.78 96.244l-8.485-8.485Z" fill="#000"/></svg>

<svg id="vector" xmlns="http://www.w3.org/2000/svg" width="192" height="192" viewBox="0 0 192 192"><path fill="#000000" d="M80,38L84.243,33.757C83.117,32.632 81.591,32 80,32V38ZM96,54L91.757,58.243C92.883,59.368 94.409,60 96,60V54ZM154,148H38V160H154V148ZM28,138V54H16V138H28ZM38,44H80V32H38V44ZM75.757,42.243L91.757,58.243L100.243,49.757L84.243,33.757L75.757,42.243ZM164,70V138H176V70H164ZM96,60H154V48H96V60ZM38,148C32.477,148 28,143.523 28,138H16C16,150.15 25.85,160 38,160V148ZM154,160C166.15,160 176,150.15 176,138H164C164,143.523 159.523,148 154,148V160ZM176,70C176,57.85 166.15,48 154,48V60C159.523,60 164,64.477 164,70H176ZM28,54C28,48.477 32.477,44 38,44V32C25.85,32 16,41.85 16,54H28Z" id="path_0"/><path fill="#000000" d="M84.265,79.274L88.508,83.516C90.256,81.769 90.753,79.129 89.761,76.865L84.265,79.274ZM55.274,108.265L52.865,113.761C55.129,114.753 57.769,114.255 59.516,112.508L55.274,108.265ZM75.426,76.799C76.886,78.258 77.996,79.917 78.77,81.682L89.761,76.865C88.397,73.754 86.444,70.846 83.912,68.314L75.426,76.799ZM52.799,76.799C59.047,70.55 69.178,70.55 75.426,76.799L83.912,68.314C72.977,57.379 55.248,57.379 44.314,68.314L52.799,76.799ZM52.799,99.426C46.551,93.178 46.551,83.047 52.799,76.799L44.314,68.314C33.379,79.248 33.379,96.977 44.314,107.912L52.799,99.426ZM57.682,102.77C55.917,101.996 54.258,100.886 52.799,99.426L44.314,107.912C46.846,110.444 49.754,112.397 52.865,113.761L57.682,102.77ZM59.516,112.508L88.508,83.516L80.023,75.031L51.031,104.023L59.516,112.508Z" id="path_1"/><path fill="#000000" d="M42.546,120.993L38.303,116.751C36.556,118.498 36.058,121.139 37.05,123.402L42.546,120.993ZM71.538,92.002L73.946,86.506C71.683,85.514 69.042,86.012 67.295,87.759L71.538,92.002ZM51.385,123.468C49.926,122.009 48.815,120.35 48.041,118.585L37.05,123.402C38.414,126.513 40.367,129.421 42.9,131.953L51.385,123.468ZM74.012,123.468C67.764,129.717 57.633,129.717 51.385,123.468L42.9,131.953C53.834,142.888 71.563,142.888 82.498,131.953L74.012,123.468ZM74.012,100.841C80.261,107.089 80.261,117.22 74.012,123.468L82.498,131.953C93.432,121.019 93.432,103.29 82.498,92.355L74.012,100.841ZM69.129,97.497C70.894,98.271 72.553,99.382 74.012,100.841L82.498,92.355C79.965,89.823 77.057,87.87 73.946,86.506L69.129,97.497ZM67.295,87.759L38.303,116.751L46.789,125.236L75.78,96.244L67.295,87.759Z" id="path_2"/></svg>
